svg/car_door.svg

<svg xmlns="http://www.w3.org/2000/svg" viewBox="0 0 24 24"><path d="M19 14h-3v2h3zm3 7H3V11l8-8h10a1 1 0 0 1 1 1zM11.83 5l-6 6H20V5z"/></svg>

<?xml version="1.0" encoding="UTF-8"?><!DOCTYPE svg PUBLIC "-//W3C//DTD SVG 1.1//EN" "http://www.w3.org/Graphics/SVG/1.1/DTD/svg11.dtd"><svg xmlns="http://www.w3.org/2000/svg" xmlns:xlink="http://www.w3.org/1999/xlink" version="1.1" id="mdi-car-door" width="24" height="24" viewBox="0 0 24 24"><path d="M19,14H16V16H19V14M22,21H3V11L11,3H21A1,1 0 0,1 22,4V21M11.83,5L5.83,11H20V5H11.83Z" /></svg>
